SVG/train.svg

<?xml version="1.0" encoding="utf-8"?>
<!-- Generated by IcoMoon.io -->
<!DOCTYPE svg PUBLIC "-//W3C//DTD SVG 1.1//EN" "http://www.w3.org/Graphics/SVG/1.1/DTD/svg11.dtd">
<svg version="1.1" xmlns="http://www.w3.org/2000/svg" xmlns:xlink="http://www.w3.org/1999/xlink" width="12" height="14" viewBox="0 0 12 14">
<path fill="#444444" d="M8.5 0q1.445 0 2.473 0.73t1.027 1.77v7q0 1.016-0.98 1.734t-2.387 0.758l1.664 1.578q0.125 0.117 0.062 0.273t-0.234 0.156h-8.25q-0.172 0-0.234-0.156t0.062-0.273l1.664-1.578q-1.406-0.039-2.387-0.758t-0.98-1.734v-7q0-1.039 1.027-1.77t2.473-0.73h5zM6 10.5q0.625 0 1.062-0.438t0.438-1.062-0.438-1.062-1.062-0.438-1.062 0.438-0.438 1.062 0.438 1.062 1.062 0.438zM10.5 6v-4h-9v4h9z"></path>
</svg>

<svg xmlns="http://www.w3.org/2000/svg" viewBox="0 0 12 14"><path d="M8.5 0q1.445 0 2.473.73T12 2.5v7q0 1.016-.98 1.734t-2.387.758l1.664 1.578q.125.117.062.273t-.24.157H1.87q-.172 0-.234-.16t.062-.273l1.664-1.58Q1.96 11.95.98 11.234T0 9.5v-7Q0 1.46 1.027.73T3.5 0h5zM6 10.5q.625 0 1.062-.438T7.5 9t-.438-1.062T6 7.5t-1.062.438T4.5 9t.438 1.062T6 10.5zM10.5 6V2h-9v4h9z" /></svg>
